public/images/landing_free.svg

<svg width="24" height="24" viewBox="0 0 24 24" fill="none" xmlns="http://www.w3.org/2000/svg">
<path d="M2.472 13.2C2.69206 14.947 3.38833 16.5998 4.48466 17.9776C5.58098 19.3554 7.03512 20.4051 8.688 21.012C7.73404 18.5173 7.23809 15.8709 7.224 13.2H2.472ZM2.472 10.8H7.224C7.23809 8.12914 7.73404 5.48273 8.688 2.988C7.03512 3.59486 5.58098 4.64462 4.48466 6.02244C3.38833 7.40025 2.69206 9.05304 2.472 10.8ZM21.528 10.8C21.3079 9.05304 20.6117 7.40025 19.5153 6.02244C18.419 4.64462 16.9649 3.59486 15.312 2.988C16.266 5.48273 16.7619 8.12914 16.776 10.8H21.528ZM21.528 13.2H16.776C16.7619 15.8709 16.266 18.5173 15.312 21.012C16.9649 20.4051 18.419 19.3554 19.5153 17.9776C20.6117 16.5998 21.3079 14.947 21.528 13.2ZM9.624 13.2C9.816 17.94 11.1 21.6 12 21.6C12.9 21.6 14.184 17.94 14.376 13.2H9.624ZM9.624 10.8H14.376C14.184 6.06 12.9 2.4 12 2.4C11.1 2.4 9.816 6.06 9.624 10.8ZM12 24C8.8174 24 5.76516 22.7357 3.51472 20.4853C1.26428 18.2348 0 15.1826 0 12C0 8.8174 1.26428 5.76516 3.51472 3.51472C5.76516 1.26428 8.8174 0 12 0C15.1826 0 18.2348 1.26428 20.4853 3.51472C22.7357 5.76516 24 8.8174 24 12C24 15.1826 22.7357 18.2348 20.4853 20.4853C18.2348 22.7357 15.1826 24 12 24Z" fill="white"/>
</svg>

<svg xmlns="http://www.w3.org/2000/svg" width="24" height="24" fill="none"  xmlns:v="https://vecta.io/nano"><path d="M2.472 13.2a9.6 9.6 0 0 0 6.216 7.812A22.2 22.2 0 0 1 7.224 13.2H2.472zm0-2.4h4.752a22.2 22.2 0 0 1 1.464-7.812A9.6 9.6 0 0 0 2.472 10.8zm19.056 0a9.6 9.6 0 0 0-6.216-7.812 22.2 22.2 0 0 1 1.464 7.812h4.752zm0 2.4h-4.752a22.2 22.2 0 0 1-1.464 7.812 9.6 9.6 0 0 0 6.216-7.812zm-11.904 0c.192 4.74 1.476 8.4 2.376 8.4s2.184-3.66 2.376-8.4H9.624zm0-2.4h4.752C14.184 6.06 12.9 2.4 12 2.4s-2.184 3.66-2.376 8.4zM12 24A12 12 0 0 1 0 12 12 12 0 0 1 12 0a12 12 0 0 1 12 12 12 12 0 0 1-12 12z" fill="#fff"/></svg>
